X:159
T:Jenny Picking Cockles
Z: id:dc-reel-146
M:C
L:1/8
K:D Mixolydian
Addc AGEF|GEcE dEcE|Addc AGEF|GEcE EDD2|!
Addc AGEF|G2AB c3d|eddc AGEF|GEcE EDD2:|!
f3d e3d|cAAB cdeg|f3d e3d|eaag edd2|!
f3d e3d|cAAB c3d|eddc AGEF|GEcE EDD2:|!

